modules/feathericon/icons/facebook.svg

<?xml version="1.0" encoding="UTF-8"?>
<svg width="14px" height="14px" viewBox="0 0 14 14" version="1.1" xmlns="http://www.w3.org/2000/svg" xmlns:xlink="http://www.w3.org/1999/xlink">
    <!-- Generator: sketchtool 48.1 (47250) - http://www.bohemiancoding.com/sketch -->
    <title>facebook</title>
    <desc>Created with sketchtool.</desc>
    <defs></defs>
    <g id="brand" stroke="none" stroke-width="1" fill="none" fill-rule="evenodd">
        <g id="facebook" fill="#000000">
            <path d="M9.60728906,14.0001049 L9.60728906,8.57856894 L11.427127,8.57856894 L11.6995807,6.46566227 L9.60728906,6.46566227 L9.60728906,5.11666473 C9.60728906,4.50492894 9.7771399,4.08806525 10.6544053,4.08806525 L11.7732807,4.0875407 L11.7732807,2.19777963 C11.57972,2.17207645 10.9155812,2.11453279 10.142912,2.11453279 C8.52974863,2.11453279 7.42540344,3.09917458 7.42540344,4.90747228 L7.42540344,6.46566227 L5.60094944,6.46566227 L5.60094944,8.57856894 L7.42540344,8.57856894 L7.42540344,14.0001049 L0.772669197,14.0001049 C0.345838969,14.0001049 0,13.6541086 0,13.2274357 L0,0.772721652 C0,0.345891425 0.345838969,0 0.772669197,0 L13.2273308,0 C13.6540037,0 14,0.345891425 14,0.772721652 L14,13.2274357 C14,13.6541086 13.6540037,14.0001049 13.2273308,14.0001049 L9.60728906,14.0001049 Z" id="Shape"></path>
        </g>
    </g>
</svg>

<svg width="14" height="14" xmlns="http://www.w3.org/2000/svg"><path d="M9.607 14V8.58h1.82l.273-2.113H9.607v-1.35c0-.611.17-1.028 1.047-1.028h1.12v-1.89a14.974 14.974 0 0 0-1.631-.083c-1.613 0-2.718.984-2.718 2.792v1.559H5.601v2.113h1.824V14H.773A.773.773 0 0 1 0 13.227V.773C0 .346.346 0 .773 0h12.454c.427 0 .773.346.773.773v12.454a.773.773 0 0 1-.773.773h-3.62z" fill="#000" fill-rule="evenodd"/></svg>
